X: 305635
T: COTILLION No. 2. BALTIMORE SETT tune 6
%R: jig
B: Elias Howe "The Musician's Companion" Part 3 1844 p.81 #3
S: http://imslp.org/wiki/The_Musician's_Companion_(Howe,_Elias)
Z: 2015 John Chambers <jc:trillian.mit.edu>
M: 6/8
L: 1/8
K: Bb
% - - - - - - - - - - - - - - - - - - - - - - - - - - - - -
F |\
B2d B2d | B2d f2d | BAB e2d | c2A FGA |\
B2d B2d | B2d fga | bge dec | c3 B2 H|]
% - - - - - - - - - - Dance description - - - - - - - - - -
%%begintext align
%% First 4 forward and back,
%% back to back,
%% balance 4 and turn partners,
%% ladies chain,
%% promenade 4.
%% Side couples the same.
%%endtext
% - - - - - - - - - - - - - - - - - - - - - - - - - - - - -
%%sep 1 1 300


